X:85
T:Lei Cascavu
O:France
A:Provence
C:Trad.
R:Farandole
M:6/8
Q:3/8=90
K:Bbmajor
dc|:B2c d2e|f3- fde|f2f fgf|e2d cdc|B2c d2e|f3- fde|f2f fgf|e2d c2B|
c2B c2d|e2d c3|Bcd Bcd|cdB cdc|B2c d2e|f3 g3|fgf edc|B3- Bdc:|
%%footer $D   Galouvielle-MBe 2008 \nFarandole (France)
